X:0444
T:Madle. Heinel's Fancy.
Z:I guess the Ps and Fs in the 2nd part are 'piano' and 'forte' ?
M:2/4
L:1/16
Q:1/4=88
P:ABA
N:Aird prints a da capo
I: :: || DC
Z:Jack Campin * www.campin.me.uk * 2009
K:G
P:A
    d4       B2Bd|    dccB  {B}A2G2|AFG2 AFG2|c2B2 {B}A4 |
    d4       B2Bd|    dccB  {B}A2G2|ecde dABc|B2A2    G4::
P:B
"^P"gfga "^F"gbd2|"^P"edef "^F"egB2|cBcd ceAc|BdGB {B}A4 |
"^P"gfga "^F"gbd2|"^P"edef "^F"egB2|cBcd ceAc|BdGB    A4||
<end>
<start>
